material/.icons/material/cupboard-outline.svg

<svg xmlns="http://www.w3.org/2000/svg" viewBox="0 0 24 24"><path d="M7 2c-1.1 0-2 .9-2 2v15a2 2 0 002 2v1h2v-1h6v1h2v-1c1.11 0 2-.89 2-2V4a2 2 0 00-2-2H7m0 2h10v3H7V4m0 5h10v3H7V9m0 5h4v5H7v-5m6 0h4v5h-4v-5m-5 1v3h2v-3H8m6 0v3h2v-3h-2z"/></svg>

<?xml version="1.0" encoding="UTF-8"?><!DOCTYPE svg PUBLIC "-//W3C//DTD SVG 1.1//EN" "http://www.w3.org/Graphics/SVG/1.1/DTD/svg11.dtd"><svg xmlns="http://www.w3.org/2000/svg" xmlns:xlink="http://www.w3.org/1999/xlink" version="1.1" id="mdi-cupboard-outline" width="24" height="24" viewBox="0 0 24 24"><path d="M7 2C5.9 2 5 2.9 5 4V19C5 20.11 5.9 21 7 21V22H9V21H15V22H17V21C18.11 21 19 20.11 19 19V4C19 2.9 18.11 2 17 2H7M7 4H17V7H7V4M7 9H17V12H7V9M7 14H11V19H7V14M13 14H17V19H13V14M8 15V18H10V15H8M14 15V18H16V15H14Z" /></svg>
